svg/building/house_fill.svg

<svg xmlns="http://www.w3.org/2000/svg" width="24" height="24" viewBox="0 0 24 24"><g fill="none" fill-rule="evenodd"><path d="M24,0 L24,24 L0,24 L0,0 L24,0 Z M12.5935,23.2578 L12.5819,23.2595 L12.5109,23.295 L12.4919,23.2987 L12.4767,23.295 L12.4057,23.2595 C12.3958,23.2564 12.387,23.259 12.3821,23.2649 L12.378,23.2758 L12.3609,23.7031 L12.3659,23.7235 L12.3769,23.7357 L12.4805,23.8097 L12.4953,23.8136 L12.5071,23.8097 L12.6107,23.7357 L12.6233,23.7197 L12.6267,23.7031 L12.6096,23.2758 C12.6076,23.2657 12.601,23.2593 12.5935,23.2578 Z M12.8584,23.1453 L12.8445,23.1473 L12.6598,23.2397 L12.6499,23.2499 L12.6472,23.2611 L12.6651,23.6906 L12.6699,23.7034 L12.6784,23.7105 L12.8793,23.8032 C12.8914,23.8069 12.9022,23.803 12.9078,23.7952 L12.9118,23.7812 L12.8777,23.1665 C12.8753,23.1546 12.8674,23.147 12.8584,23.1453 Z M12.143,23.1473 C12.1332,23.1424 12.1222,23.1453 12.1156,23.1526 L12.1099,23.1665 L12.0758,23.7812 C12.0751,23.7927 12.0828,23.8019 12.0926,23.8046 L12.1083,23.8032 L12.3092,23.7105 L12.3186,23.7024 L12.3225,23.6906 L12.3404,23.2611 L12.3372,23.2485 L12.3278,23.2397 L12.143,23.1473 Z"/><path fill="#09244B" d="M16.7751,3.02559 C17.3133,2.9014 17.8502,3.23698 17.9744,3.77512 C18.0897286,4.27482143 17.8085969,4.77347092 17.3369338,4.94159053 L17.2248,4.97437 L15,5.4878 L15,9.99998 L19,9.99998 C20.0542955,9.99998 20.9181591,10.8158482 20.9945139,11.8507337 L21,12 L21,19 C21,20.0542955 20.1840589,20.9181591 19.1492537,20.9945139 L19,21 L5.99998,21 C4.94561773,21 4.08181483,20.1840589 4.00546573,19.1492537 L3.99998,19 L3.99998,8.0002 C3.54442,8.0006 3.13238,7.68762 3.02559,7.22484 C2.91027071,6.72513857 3.19138577,6.22648046 3.66299843,6.05836762 L3.77512,6.02559 L16.7751,3.02559 Z M15,14 L14,14 C13.48715,14 13.0644908,14.386027 13.0067275,14.8833761 L13,15 L13,19 L16,19 L16,15 C16,14.48715 15.613973,14.0644908 15.1166239,14.0067275 L15,14 Z M7.99998,7.10318 L5.99998,7.56472 L5.99998,19 L7.99998,19 L7.99998,7.10318 Z M13,5.94934 L9.99998,6.64164 L9.99998,9.99998 L13,9.99998 L13,5.94934 Z"/></g></svg>

<svg xmlns="http://www.w3.org/2000/svg" width="24" height="24"><g fill="none" fill-rule="evenodd"><path d="M24 0v24H0V0zM12.594 23.258l-.012.002-.071.035-.02.004-.014-.004-.071-.036c-.01-.003-.019 0-.024.006l-.004.01-.017.428.005.02.01.013.104.074.015.004.012-.004.104-.074.012-.016.004-.017-.017-.427c-.002-.01-.009-.017-.016-.018m.264-.113-.014.002-.184.093-.01.01-.003.011.018.43.005.012.008.008.201.092c.012.004.023 0 .029-.008l.004-.014-.034-.614c-.003-.012-.01-.02-.02-.022m-.715.002a.023.023 0 0 0-.027.006l-.006.014-.034.614c0 .012.007.02.017.024l.015-.002.201-.093.01-.008.003-.011.018-.43-.003-.012-.01-.01z"/><path fill="#09244B" d="M16.775 3.026a1 1 0 0 1 .562 1.916l-.112.032L15 5.488V10h4a2 2 0 0 1 1.995 1.85L21 12v7a2 2 0 0 1-1.85 1.995L19 21H6a2 2 0 0 1-1.995-1.85L4 19V8a1 1 0 0 1-.337-1.942l.112-.032zM15 14h-1a1 1 0 0 0-.993.883L13 15v4h3v-4a1 1 0 0 0-.883-.993zM8 7.103l-2 .462V19h2zm5-1.154-3 .693V10h3z"/></g></svg>
